src/static/logos/speakerdeck.svg

<?xml version="1.0" encoding="UTF-8" standalone="no"?>
<svg width="256px" height="207px" viewBox="0 0 256 207" version="1.1" xmlns="http://www.w3.org/2000/svg" xmlns:xlink="http://www.w3.org/1999/xlink" preserveAspectRatio="xMidYMid">
    <defs>
        <linearGradient x1="0%" y1="0%" x2="0%" y2="100%" id="linearGradient-1">
            <stop stop-color="#3CB579" offset="0%"></stop>
            <stop stop-color="#004A4A" offset="100%"></stop>
        </linearGradient>
    </defs>
	<g>
		<path d="M0,10.8935197 C3.62830719e-15,4.87719489 4.87719489,0 10.8935197,0 L245.10648,0 C251.122805,0 256,4.87719489 256,10.8935197 L256,196.085152 C256,202.101476 251.122805,206.978671 245.10648,206.978671 L10.8935197,206.978671 C4.87719489,206.978671 7.25661438e-15,202.101476 7.25661438e-15,196.085152 L0,10.8935197 Z" fill="#E6E6E6"></path>
		<path d="M4,13.5480999 C4,7.72254518 8.72254518,3 14.5480999,3 L241.334463,3 C247.160017,3 251.882563,7.72254518 251.882563,13.5480999 L251.882563,192.867539 C251.882563,198.693093 247.160017,203.415638 241.334463,203.415638 L14.5480999,203.415638 C8.72254518,203.415638 4,198.693093 4,192.867539 L4,13.5480999 Z" fill="url(#linearGradient-1)"></path>
		<g transform="translate(72.000000, 70.000000)">
			<rect fill-opacity="0.5" fill="#000000" x="0.988894254" y="0.988894254" width="110.756156" height="63.2892323" rx="0.5"></rect>
			<path d="M16.8112023,32.6335104 L48.4558184,16.8112023 L48.4558184,48.4558184 L16.8112023,32.6335104 Z" fill="#FFFFFF"></path>
			<path d="M95.9227426,32.6335104 L64.2781265,16.8112023 L64.2781265,48.4558184 L95.9227426,32.6335104 Z" fill="#FFFFFF"></path>
		</g>
	</g>
</svg>

<svg width="256" height="207" xmlns="http://www.w3.org/2000/svg" preserveAspectRatio="xMidYMid"><defs><linearGradient x1="0%" y1="0%" x2="0%" y2="100%" id="a"><stop stop-color="#3CB579" offset="0%"/><stop stop-color="#004A4A" offset="100%"/></linearGradient></defs><path d="M0 10.894C0 4.877 4.877 0 10.894 0h234.212C251.123 0 256 4.877 256 10.894v185.191c0 6.016-4.877 10.894-10.894 10.894H10.894C4.877 206.979 0 202.1 0 196.085V10.894z" fill="#E6E6E6"/><path d="M4 13.548C4 7.723 8.723 3 14.548 3h226.786c5.826 0 10.549 4.723 10.549 10.548v179.32c0 5.825-4.723 10.548-10.549 10.548H14.548C8.723 203.416 4 198.693 4 192.868V13.548z" fill="url(#a)"/><g transform="translate(72 70)"><rect fill-opacity=".5" x=".989" y=".989" width="110.756" height="63.289" rx=".5"/><path d="M16.811 32.634L48.456 16.81v31.645L16.81 32.634zm79.112 0L64.278 16.81v31.645l31.645-15.822z" fill="#FFF"/></g></svg>
